X:1
T:Title
%%score { ( 1 3 ) | 2 }
L:1/8
M:6/4
K:G
V:1 treble nm="Grand Piano"
V:3 treble 
V:2 bass 
V:1
 z6 z4[Q:1/4=123] [B,D]2 | [DB]2 [DG]2 [D^G]2 [^CA]2 [CE]2 [C=G]2 | F2 B2 A2 G4 B2 | %3
 d2 e2 d2 d2 B2 [DG]2 | [^CG]2 [CA]2 [CB]2 A4 DD | [DB]2 [DG]2 [D^G]2 [^CA]2 [CE]2 [C=G]2 | %6
[M:5/4] [CF]2 [FB]2 [FA]2 [EG]4 |[M:1/4] [EB]2 |[M:6/4] [^CA]2 [GB]2 [GA]2 [Fd]2 [A,FA]2 [A,DF]2 | %9
 [B,^CG]2 [A,CF]2[K:bass] [G,CE]2 [F,D]6 | [Fd]2 [Fd]2 [=Fd]2 [^Fd]4 [Ec]2 | c2 B2 _B2 =B6 | %12
 z6 .G6 | z6 A6 | [B,D]2 [DG]2 A2 B4 [FA]2 | B2 B2 c2 d6 | d2 e2 d2 d4 [EGc]2 | %17
[M:5/4] [DGB] [DEB]3 [CFA]2 [B,DG]4 |] %18
V:2
 z6 z4 [G,,G,]2 | [G,,G,]2 [B,,G,]2 [B,,E,]2 [A,,E,]2 [A,,A,]2 [A,,A,]2 | %2
 [D,A,C]2 [D,F,D]2 [D,CD]2[K:treble] [G,B,D]4 [G,D]2 | %3
 [G,B,G]2 [G,CG]2 [G,B,G]2 [G,B,G]2[K:bass] [G,D]2 [B,,G,]2 | %4
 [A,,E,]2 [A,,E,]2 [A,,G,]2 [D,F,C]4 .[D,F,C]2 | %5
 [G,,G,]2 [B,,G,]2 [B,,E,]2 [A,,E,]2 [A,,A,]2 [A,,A,]2 |[M:5/4] [D,A,]2 [D,D]2 [^D,C]2 [E,B,]4 | %7
[M:1/4] [E,G,]2 |[M:6/4] [A,,E,]2 [A,,A,]2 [^C,A,]2 [D,A,]2 D,2 D,2 | A,,2 A,,2 A,,2 D,6 | %10
 [D,A,]2 [D,A,]2 [D,^G,]2 [D,A,]4 [D,A,]2 | [G,E]2 [G,D]2 [G,^C]2 [G,D]6 | %12
 [B,,F,]2 [^C,F,]2 ^D,2 E,2 F,2 G,2 | [A,,G,]2 [A,,E,]2 [A,,E,]2 .[D,F,D]6 | %14
 [G,,G,]2 [B,,G,]2 [D,F,D]2 [G,D]4 [D,D]2 | [G,DG]2 [G,DG]2 [G,A,G]2 [G,B,G]6 | %16
 [G,B,G]2 [G,CG]2 [G,B,G]2 [G,B,G]4[K:bass] C,2 |[M:5/4] D, D,3 D,2 G,4 |] %18
V:3
 x12 | x12 | x12 | x12 | x12 | x12 |[M:5/4] x10 |[M:1/4] x2 |[M:6/4] x12 | x4[K:bass] x8 | x12 | %11
 x12 | [^DB]2 [EB]2 [B,FB]2 [B,B]2- [B,-FB-]2 [B,EB]2 | [^CB]2 [CA]2 [CA]2 z4 =C2 | x12 | x12 | %16
 x12 |[M:5/4] x10 |] %18

